!! 00000] TT[00
!! NN
!!!OTL: Tao nan
!!!ARE: Asia, China, Shanxi, Zuoquan
!! Ethnic Group: Han
!! I, 295
!!!SCT: C0075
!!!YEM: Copyright 1995, estate of Helmut Schaffrath.
**kern
*ICvox
*Ivox
*M2/4
*k[f#c#g#]
*A:
{8a
8g#
8f#
8e
=1
8.a
16b
4cc#
=2
8ee
8b
8cc#
8b
=3
8a
8g#
8f#
8e}
=4
{8e
8cc#
8b
8cc#
=5
8.e
16f#
8a
8a
=6
8b
8g#
16f#
16e
8f#
=7
2e}
==
!!!AGN: Xiaodiao. Geming lishi minge
!! neues Volkslied, aber typisch. Der Text wurde im Krieg gegen die
!!    japanische Aggression unterlegt.
!!!ONB: ESAC (Essen Associative Code) Database: CHINA
!!!AMT: simple duple
!!!AIN: vox
!!!EED: Helmut Schaffrath
!!!EEV: 1.0
*-
